RestoDelMundo/Mexico/Otras Categorias/Monterrey Soccer  2009.svg

<svg xmlns="http://www.w3.org/2000/svg" viewBox="0 0 612 792"><path fill="#fff" d="M379.128 225.896c37.654 12.388 75.554 33.112 75.554 33.112v7.877c0 133.839-28.282 217.071-146.676 288.735l-2.004 1.215s-20.886-12.643-38.396-26.056c-91.097-69.766-110.288-148.732-110.288-263.894v-7.877s37.904-20.725 75.555-33.112c41.494-13.641 73.129-16.807 73.129-16.807s31.629 3.166 73.126 16.807"/><path fill="#1b097e" d="M306.002 212.983s30.887 3.102 71.921 16.587c37.313 12.276 72.889 31.734 72.889 31.734v5.58c0 132.95-27.924 214.665-144.809 285.422 0 0-18.699-11.318-36.042-24.595-89.74-68.729-108.77-146.253-108.77-260.827v-5.58s35.575-19.458 72.891-31.734c41.026-13.484 71.92-16.587 71.92-16.587"/><path fill="#fff" d="M235.061 232.556c40.653-13.367 70.942-16.425 70.942-16.425s30.286 3.058 70.937 16.425c37.04 12.179 70.738 30.609 70.738 30.609v3.72c0 114.101-18.905 190.452-107.547 258.331-17.199 13.168-34.129 23.424-34.129 23.424s-16.935-10.256-34.133-23.424c-88.642-67.879-107.539-144.23-107.539-258.331v-3.72s33.695-18.431 70.731-30.609"/><path fill="#1b097e" d="m346.828 415.008 9.83-32.514 11.718 32.895 53.292-14.745-35.526-103.942h-58.304l-21.836 38.931-21.84-38.931h-58.308l-35.528 103.942 53.294 14.745 11.717-32.895 9.824 32.514Z"/><path fill="#1b097e" d="m391.808 289.271.005-44.773c28.415 10.817 49.589 22.387 49.589 22.387 0 58.194-5.427 97.568-14.01 126.907zm-50.406 0-17.336.01-18.064 32.642-18.068-32.642-18.064-.01v-60.09c22.026-5.301 36.132-6.732 36.132-6.732s13.792 1.396 35.4 6.55zm50.411 174.919v-47.559l30.84-8.43c-8.608 23.397-19.43 39.957-30.84 55.989m-50.411-41.833v93.921c-19.193 15.209-35.4 25.026-35.4 25.026s-16.624-10.071-36.132-25.616v-93.331zM219.45 416.55v46.605c-11.088-15.644-21.59-31.917-29.996-54.655zm0-171.77v44.49l-35.145 103.286c-8.421-29.129-13.702-68.241-13.702-125.672.001.001 20.805-11.368 48.847-22.104"/><path d="M94.741 631.418v-35.316h.137l5.633 35.316h8.31l5.909-35.998.136.138v35.86h8.726v-48.914h-13.531l-4.809 32.837h-.14l-4.19-32.837H86.017v48.914Z"/><path fill-rule="evenodd" d="M152.283 623.446c0 6.525 5.427 8.926 11.401 8.926 5.976 0 11.404-2.4 11.404-8.926V590.47c0-6.524-5.428-8.929-11.404-8.929-5.974 0-11.401 2.404-11.401 8.929zm13.12-1.58c0 1.373-.209 3.225-1.719 3.225s-1.715-1.852-1.715-3.225v-29.815c0-1.368.204-3.225 1.715-3.225 1.51 0 1.719 1.856 1.719 3.225z" clip-rule="evenodd"/><path d="M211.339 631.418v-38.335l.138-.138 6.868 38.473h11.54v-48.914h-7.555v31.732h-.139l-4.945-31.732h-13.465v48.914ZM273.56 589.512h6.524v-7.008h-22.733v7.008h6.527v41.906h9.682ZM325.672 631.418V624.4h-8.445v-16.683h8.109v-7.008h-8.109v-11.197h8.445v-7.008h-18.135v48.914Z"/><path fill-rule="evenodd" d="M363.1 631.418v-22.881c3.429 0 3.429 2.408 3.429 5.432v11.122c0 3.369.622 4.95 1.313 6.327h9.819c-.549-1.932-1.443-3.926-1.443-8.657v-9.689c0-5.561-1.373-7.898-7.486-8.239v-.138c5.838-.346 7.486-4.335 7.486-7.97v-4.327c0-7.495-5.428-9.894-11.403-9.894H353.41v48.914zm0-41.906h1.161c1.586 0 2.268.757 2.268 3.093v7.209c0 2.338-.682 3.093-2.268 3.093H363.1zM414.323 631.418v-22.881c3.437 0 3.437 2.408 3.437 5.432v11.122c0 3.369.617 4.95 1.3 6.327h9.827c-.553-1.932-1.441-3.926-1.441-8.657v-9.689c0-5.561-1.374-7.898-7.488-8.239v-.138c5.839-.346 7.488-4.335 7.488-7.97v-4.327c0-7.495-5.433-9.894-11.408-9.894h-11.399v48.914zm0-41.906h1.17c1.58 0 2.267.757 2.267 3.093v7.209c0 2.338-.687 3.093-2.267 3.093h-1.17z" clip-rule="evenodd"/><path d="M474.273 631.418V624.4h-8.451v-16.683h8.11v-7.008h-8.11v-11.197h8.451v-7.008h-18.136v48.914ZM508.88 631.418h9.686v-24.53l7.417-24.384h-8.722l-3.027 19.44h-.133l-3.092-19.44H500.84l8.04 24.384Z"/><g fill="#1b097e"><path d="m245.216 198.054-10.807 7.857 4.136-12.703-10.816-7.852h13.364l4.123-12.703 4.126 12.703h13.359l-10.816 7.852 4.136 12.703ZM366.787 198.054l-10.807 7.857 4.135-12.703-10.814-7.852h13.367l4.119-12.703 4.123 12.703h13.361l-10.81 7.852 4.131 12.703Z"/></g><path fill="#1b097e" d="m306.003 185.028-10.808 7.858 4.135-12.703-10.814-7.852h13.367l4.12-12.703 4.12 12.703h13.361l-10.808 7.852 4.131 12.703Z"/></svg>

<svg enable-background="new 0 0 612 792" viewBox="0 0 612 792" xmlns="http://www.w3.org/2000/svg"><g><g><path d="M 379.128 225.896 c 37.654 12.388 75.554 33.112 75.554 33.112 v 7.877 c 0 133.839 -28.282 217.071 -146.676 288.735 l -2.004 1.215 c 0 0 -20.886 -12.643 -38.396 -26.056 c -91.097 -69.766 -110.288 -148.732 -110.288 -263.894 v -7.877 c 0 0 37.904 -20.725 75.555 -33.112 c 41.494 -13.641 73.129 -16.807 73.129 -16.807 S 337.631 212.255 379.128 225.896 z" fill="#fff"/><path d="M 306.002 212.983 c 0 0 30.887 3.102 71.921 16.587 c 37.313 12.276 72.889 31.734 72.889 31.734 v 5.58 c 0 132.95 -27.924 214.665 -144.809 285.422 c 0 0 -18.699 -11.318 -36.042 -24.595 c -89.74 -68.729 -108.77 -146.253 -108.77 -260.827 v -5.58 c 0 0 35.575 -19.458 72.891 -31.734 C 275.108 216.086 306.002 212.983 306.002 212.983 z" fill="#1b097e"/><path d="M 235.061 232.556 c 40.653 -13.367 70.942 -16.425 70.942 -16.425 s 30.286 3.058 70.937 16.425 c 37.04 12.179 70.738 30.609 70.738 30.609 v 3.72 c 0 114.101 -18.905 190.452 -107.547 258.331 c -17.199 13.168 -34.129 23.424 -34.129 23.424 s -16.935 -10.256 -34.133 -23.424 c -88.642 -67.879 -107.539 -144.23 -107.539 -258.331 v -3.72 C 164.33 263.165 198.025 244.734 235.061 232.556 z" fill="#fff"/><path d="M 346.828 415.008 L 356.658 382.494 L 368.376 415.389 L 421.668 400.644 L 386.142 296.702 L 327.838 296.702 L 306.002 335.633 L 284.162 296.702 L 225.854 296.702 L 190.326 400.644 L 243.62 415.389 L 255.337 382.494 L 265.161 415.008 Z" fill="#1b097e"/><path d="M 391.808 289.271 l .005 -44.773 c 28.415 10.817 49.589 22.387 49.589 22.387 c 0 58.194 -5.427 97.568 -14.01 126.907 L 391.808 289.271 z M 341.402 289.271 l -17.336 .01 l -18.064 32.642 l -18.068 -32.642 l -18.064 -.01 v -60.09 c 22.026 -5.301 36.132 -6.732 36.132 -6.732 s 13.792 1.396 35.4 6.55 V 289.271 z M 391.813 464.19 v -47.559 l 30.84 -8.43 C 414.045 431.598 403.223 448.158 391.813 464.19 z M 341.402 422.357 v 93.921 c -19.193 15.209 -35.4 25.026 -35.4 25.026 s -16.624 -10.071 -36.132 -25.616 v -93.331 H 341.402 z M 219.45 416.55 v 46.605 c -11.088 -15.644 -21.59 -31.917 -29.996 -54.655 L 219.45 416.55 z M 219.45 244.78 v 44.49 l -35.145 103.286 c -8.421 -29.129 -13.702 -68.241 -13.702 -125.672 C 170.604 266.885 191.408 255.516 219.45 244.78 z" fill="#1b097e"/></g><g><path d="M 94.741 631.418 L 94.741 596.102 L 94.878 596.102 L 100.511 631.418 L 108.821 631.418 L 114.73 595.42 L 114.866 595.558 L 114.866 631.418 L 123.592 631.418 L 123.592 582.504 L 110.061 582.504 L 105.252 615.341 L 105.112 615.341 L 100.922 582.504 L 86.017 582.504 L 86.017 631.418 Z"/><path clip-rule="evenodd" d="M 152.283 623.446 c 0 6.525 5.427 8.926 11.401 8.926 c 5.976 0 11.404 -2.4 11.404 -8.926 v -32.976 c 0 -6.524 -5.428 -8.929 -11.404 -8.929 c -5.974 0 -11.401 2.404 -11.401 8.929 V 623.446 z M 165.403 621.866 c 0 1.373 -.209 3.225 -1.719 3.225 c -1.511 0 -1.715 -1.852 -1.715 -3.225 v -29.815 c 0 -1.368 .204 -3.225 1.715 -3.225 c 1.51 0 1.719 1.856 1.719 3.225 V 621.866 z" fill-rule="evenodd"/><path d="M 211.339 631.418 L 211.339 593.083 L 211.477 592.945 L 218.345 631.418 L 229.885 631.418 L 229.885 582.504 L 222.33 582.504 L 222.33 614.236 L 222.191 614.236 L 217.246 582.504 L 203.781 582.504 L 203.781 631.418 Z"/><path d="M 273.56 589.512 L 280.084 589.512 L 280.084 582.504 L 257.351 582.504 L 257.351 589.512 L 263.878 589.512 L 263.878 631.418 L 273.56 631.418 Z"/><path d="M 325.672 631.418 L 325.672 624.4 L 317.227 624.4 L 317.227 607.717 L 325.336 607.717 L 325.336 600.709 L 317.227 600.709 L 317.227 589.512 L 325.672 589.512 L 325.672 582.504 L 307.537 582.504 L 307.537 631.418 Z"/><path clip-rule="evenodd" d="M 363.1 631.418 v -22.881 c 3.429 0 3.429 2.408 3.429 5.432 v 11.122 c 0 3.369 .622 4.95 1.313 6.327 h 9.819 c -.549 -1.932 -1.443 -3.926 -1.443 -8.657 v -9.689 c 0 -5.561 -1.373 -7.898 -7.486 -8.239 v -.138 c 5.838 -.346 7.486 -4.335 7.486 -7.97 v -4.327 c 0 -7.495 -5.428 -9.894 -11.403 -9.894 H 353.41 v 48.914 H 363.1 z M 363.1 589.512 h 1.161 c 1.586 0 2.268 .757 2.268 3.093 v 7.209 c 0 2.338 -.682 3.093 -2.268 3.093 H 363.1 V 589.512 z" fill-rule="evenodd"/><path clip-rule="evenodd" d="M 414.323 631.418 v -22.881 c 3.437 0 3.437 2.408 3.437 5.432 v 11.122 c 0 3.369 .617 4.95 1.3 6.327 h 9.827 c -.553 -1.932 -1.441 -3.926 -1.441 -8.657 v -9.689 c 0 -5.561 -1.374 -7.898 -7.488 -8.239 v -.138 c 5.839 -.346 7.488 -4.335 7.488 -7.97 v -4.327 c 0 -7.495 -5.433 -9.894 -11.408 -9.894 h -11.399 v 48.914 H 414.323 z M 414.323 589.512 h 1.17 c 1.58 0 2.267 .757 2.267 3.093 v 7.209 c 0 2.338 -.687 3.093 -2.267 3.093 h -1.17 V 589.512 z" fill-rule="evenodd"/><path d="M 474.273 631.418 L 474.273 624.4 L 465.822 624.4 L 465.822 607.717 L 473.932 607.717 L 473.932 600.709 L 465.822 600.709 L 465.822 589.512 L 474.273 589.512 L 474.273 582.504 L 456.137 582.504 L 456.137 631.418 Z"/><path d="M 508.88 631.418 L 518.566 631.418 L 518.566 606.888 L 525.983 582.504 L 517.261 582.504 L 514.234 601.944 L 514.101 601.944 L 511.009 582.504 L 500.84 582.504 L 508.88 606.888 Z"/></g><g><path d="M 245.216 198.054 L 234.409 205.911 L 238.545 193.208 L 227.729 185.356 L 241.093 185.356 L 245.216 172.653 L 249.342 185.356 L 262.701 185.356 L 251.885 193.208 L 256.021 205.911 Z" fill="#1b097e"/><path d="M 366.787 198.054 L 355.98 205.911 L 360.115 193.208 L 349.301 185.356 L 362.668 185.356 L 366.787 172.653 L 370.91 185.356 L 384.271 185.356 L 373.461 193.208 L 377.592 205.911 Z" fill="#1b097e"/></g><path d="M 306.003 185.028 L 295.195 192.886 L 299.33 180.183 L 288.516 172.331 L 301.883 172.331 L 306.003 159.628 L 310.123 172.331 L 323.484 172.331 L 312.676 180.183 L 316.807 192.886 Z" fill="#1b097e"/></g></svg>
